!!!COM:	Bach, Johann Sebastian
!!!CDT:	1685/02/21/-1750/07/28/
!!!OTL@@DE:	Ach Gott und Herr
!!!SCT:	BWV 48/3
!!!PC#:	279
!!!OPR: Cantata BWV 48 Ich elender Mensch, wer wird mich erl&ouml;sen
!!!hymn: Leipzig 1625
!!!AGN:	chorale
**kern	**kern	**kern	**kern
*ICvox	*ICvox	*ICvox	*ICvox
*Ibass	*Itenor	*Ialto	*Isoprn
*I"Bass	*I"Tenor	*I"Alto	*I"Soprano
*clefF4	*clefGv2	*clefG2	*clefG2
*k[b-e-]	*k[b-e-]	*k[b-e-]	*k[b-e-]
*B-:	*B-:	*B-:	*B-:
*M4/4	*M4/4	*M4/4	*M4/4
*met(c)	*met(c)	*met(c)	*met(c)
*MM100	*MM100	*MM100	*MM100
4BB-	4d	4f	4b-
=1	=1	=1	=1
4F	4c	4f	4a
4C	8cL	4e	4g
.	8B-J	.	.
4FF;	4A;	4c;	4f;
4E-	4A	4c	4f
=2	=2	=2	=2
4D-	4B-	4f	4g
4C	4e-X	4f#	4a
4G;	4d;	4g;	4b-;
4F#	4d	4a	4cc
=3	=3	=3	=3
4G	4d	4g	4b-
8dL	4d	4fnX	4a
8cJ	.	.	.
8B-L	4e	4c	4g
8AJ	.	.	.
8GL	4f	4c	8aL
8FnXJ	.	.	8b-J
=4	=4	=4	=4
4c	8fL	2c	2g
.	16eL	.	.
.	16dJJ	.	.
4C	4e	.	.
4F;	4A;	4c;	4f;
4D	4F	4d	4b-
=5	=5	=5	=5
4C	4c	4e-X	4a
4BB-	4d	4f	4b-
4F;	4A;	4f;	4cc;
4F	4A	4f	4cc
=6	=6	=6	=6
4BB-	4A-	8fL	8ddL
.	.	8e-J	8ccJ
4E-	4G	4d-	4b-
4AA-X;	4e-;	4c;	4cc;
4AA	4e-	4f	4f
=7	=7	=7	=7
4BB	4dnX	4f	4g
4D-	4g	4e	4a
4.D	4f	4.d	8b-L
.	.	.	8ccJ
.	4f	.	4dd
8E	.	8g	.
=8	=8	=8	=8
4F#	4e-X	4a	4cc
8GL	4d	[4b-	4b-
8FJ	.	.	.
4E	4g	4b-]	2cc
8FL	[4f	[4a-	.
8E-J	.	.	.
=9	=9	=9	=9
4D	2f]	4a-]	[1b-
8E-L	.	2g-	.
8FJ	.	.	.
8G-L	[2e-	.	.
8A-J	.	.	.
4B-	.	8fL	.
.	.	8e-J	.
=10	=10	=10	=10
2.BB-;	4e-]	2.f;	2.b-;]
.	8dL	.	.
.	8cJ	.	.
.	4d;	.	.
==	==	==	==
*-	*-	*-	*-
!!!hum2abc: -Q ''
!!!title: @{PC#}. @{OTL@@DE}
!!!YOR1: 371 vierstimmige Choralges&auml;nge von Johann Sebastian Bach, 
!!!YOR2: 4th ed. by Alfred D&ouml;rffel (Leipzig: Breitkopf und H&auml;rtel, 
!!!YOR2: c.1875). 178 pp. Plate "V.A.10".  reprint: J.S. Bach, 371 Four-Part 
!!!YOR4: Chorales (New York: Associated Music Publishers, Inc., c.1940).
!!!SMS: B&H, 4th ed, Alfred D&ouml;rffel, c.1875, plate V.A.10
!!!PC#2: 3 (Budapest/Imre, 1982)
!!!EED:  Craig Stuart Sapp
!!!EEV:  2009/05/22
